**harm	**harte	**silbe	**rhyme	**timestamp	**phrase	**leadinstrument	**kern
*M4/4	*M4/4	*	*	*	*	*	*
*	*	*	*	*	*	*	*
*	*	*	*	*	*	*	*
*C:	*C:	*	*	*	*	*	*C:
*	*	*	*	*	*	*	*
*	*	*	*	*	*	*	*
1r;	N	.	.	0	.	r	1r;
=1	=1	=1	=1	=1	=1	=1	=1
*>Letter>A	*>Letter>A	*>Letter>A	*>Letter>A	*>Letter>A	*>Letter>A	*>Letter>A	*>Letter>A
*>Label>Intro	*>Label>Intro	*>Label>Intro	*>Label>Intro	*>Label>Intro	*>Label>Intro	*>Label>Intro	*>Label>Intro
1II7	D:7	.	.	0.604	newline	banjo piano	1D 1f# 1a 1cc
=2	=2	=2	=2	=2	=2	=2	=2
1V7	G:7	.	.	2.128	.	banjo piano	1G 1b 1dd 1ff
=3	=3	=3	=3	=3	=3	=3	=3
1II7	D:7	.	.	3.652	.	banjo piano	1D 1f# 1a 1cc
=4	=4	=4	=4	=4	=4	=4	=4
1V7	G:7	.	.	5.177	.	banjo piano	1G 1b 1dd 1ff
=5	=5	=5	=5	=5	=5	=5	=5
1II7	D:7	.	.	6.701	.	banjo piano	1D 1f# 1a 1cc
=6	=6	=6	=6	=6	=6	=6	=6
1V7	G:7	.	.	8.225	.	banjo piano	1G 1b 1dd 1ff
=7	=7	=7	=7	=7	=7	=7	=7
2I	C:maj	.	.	9.75	newline	banjo piano	1C 1e 1g
2-iiio	E-:dim	.	.	10.489	.	banjo piano	2E- 2g- 2b--
=8	=8	=8	=8	=8	=8	=8	=8
2ii7	D:min7	.	.	11.228	.	banjo piano	2.D 2.f 2.a 2.cc
2V7	G:7	.	.	11.967	.	banjo piano	4G 4b 4dd 4ff
.	.	hel-	.	.	.	.	.
.	.	-lo	.	.	.	.	.
=9	=9	=9	=9	=9	=9	=9	=9
*>Letter>B	*>Letter>B	*>Letter>B	*>Letter>B	*>Letter>B	*>Letter>B	*>Letter>B	*>Letter>B
*>Label>Verse	*>Label>Verse	*>Label>Verse	*>Label>Verse	*>Label>Verse	*>Label>Verse	*>Label>Verse	*>Label>Verse
1I7	C:maj7	_	.	12.707	newline	voice	1C 1e 1g 1b
.	.	.	.	.	.	.	.
.	.	.	.	.	.	.	.
.	.	.	.	.	.	.	.
=10	=10	=10	=10	=10	=10	=10	=10
1I7	C:maj7	dol-	A	14.266	.	voice	1C 1e 1g 1b
.	.	-ly	.	.	.	.	.
.	.	.	.	.	.	.	.
.	.	this	.	.	.	.	.
.	.	is	.	.	.	.	.
=11	=11	=11	=11	=11	=11	=11	=11
1vi	A:min	lou-	.	15.826	.	voice	1A 1cc 1ee
.	.	-is	.	.	.	.	.
.	.	.	.	.	.	.	.
.	.	.	.	.	.	.	.
.	.	.	.	.	.	.	.
=12	=12	=12	=12	=12	=12	=12	=12
1vi	A:min	dol-	A	17.385	.	voice	1A 1cc 1ee
.	.	-ly	.	.	.	.	.
.	.	.	.	.	.	.	.
.	.	it's	.	.	.	.	.
.	.	so	.	.	.	.	.
=13	=13	=13	=13	=13	=13	=13	=13
1I7	C:maj7	nice	.	18.945	newline	voice	1C 1e 1g 1b
.	.	to	.	.	.	.	.
.	.	have	.	.	.	.	.
.	.	you	.	.	.	.	.
.	.	.	.	.	.	.	.
.	.	back	.	.	.	.	.
=14	=14	=14	=14	=14	=14	=14	=14
1#ivo	F#:dim	.	.	20.475	.	voice	1F# 1a 1cc
.	.	where	.	.	.	.	.
.	.	.	.	.	.	.	.
.	.	you	.	.	.	.	.
.	.	be-	.	.	.	.	.
.	.	-long	A	.	.	.	.
=15	=15	=15	=15	=15	=15	=15	=15
1ii7	D:min7	.	.	22.005	.	voice	1D 1f 1a 1cc
=16	=16	=16	=16	=16	=16	=16	=16
1VI7	A:7(b9)	.	.	23.535	.	voice	1A 1cc# 1ee 1gg
.	.	You're	.	.	.	.	.
.	.	look	.	.	.	.	.
.	.	in	.	.	.	.	.
=17	=17	=17	=17	=17	=17	=17	=17
1ii	D:min	swell	B	25.065	newline	voice	1D 1f 1a
.	.	.	.	.	.	.	.
.	.	.	.	.	.	.	.
.	.	dol-	A	.	.	.	.
.	.	-ly	.	.	.	.	.
=18	=18	=18	=18	=18	=18	=18	=18
1VI7	A:7	.	.	26.608	.	voice	1A 1cc# 1ee 1gg
.	.	I	.	.	.	.	.
.	.	can	.	.	.	.	.
=19	=19	=19	=19	=19	=19	=19	=19
1ii	D:min(b13)	tell	B	28.152	.	voice	1D 1f 1a
.	.	.	.	.	.	.	.
.	.	.	.	.	.	.	.
.	.	dol-	A	.	.	.	.
.	.	-ly	.	.	.	.	.
=20	=20	=20	=20	=20	=20	=20	=20
1ii	D:min	.	.	29.695	.	voice	1D 1f 1a
.	.	.	.	.	.	.	.
.	.	you're	.	.	.	.	.
.	.	still	.	.	.	.	.
=21	=21	=21	=21	=21	=21	=21	=21
1ii7	D:min7	glow-	(C	31.239	newline	voice	1D 1f 1a 1cc
.	.	-in	c)	.	.	.	.
.	.	.	.	.	.	.	.
.	.	you're	.	.	.	.	.
.	.	still	.	.	.	.	.
=22	=22	=22	=22	=22	=22	=22	=22
1V7	G:7	crow-	(C	32.79	.	voice	1G 1b 1dd 1ff
.	.	-in	c)	.	.	.	.
.	.	.	.	.	.	.	.
.	.	you	.	.	.	.	.
.	.	still	.	.	.	.	.
=23	=23	=23	=23	=23	=23	=23	=23
2I	C:maj	goin	C	34.341	.	voice	2C 2e 2g
.	.	strong	A	.	.	.	.
2-iiio	E-:dim	.	.	35.117	.	voice	2E- 2g- 2b--
=24	=24	=24	=24	=24	=24	=24	=24
2ii7	D:min7	.	.	35.892	.	voice	2D 2f 2a 2cc
.	.	I	.	.	.	.	.
2V7	G:7	feel	.	36.668	.	voice	2G 2b 2dd 2ff
.	.	the	.	.	.	.	.
=25	=25	=25	=25	=25	=25	=25	=25
*>Letter>B2	*>Letter>B2	*>Letter>B2	*>Letter>B2	*>Letter>B2	*>Letter>B2	*>Letter>B2	*>Letter>B2
*>Label>Chorus	*>Label>Chorus	*>Label>Chorus	*>Label>Chorus	*>Label>Chorus	*>Label>Chorus	*>Label>Chorus	*>Label>Chorus
1I7	C:maj7	room	.	37.443	newline	voice	1C 1e 1g 1b
.	.	.	.	.	.	.	.
.	.	.	.	.	.	.	.
.	.	sway-	(D	.	.	.	.
.	.	-in	d)	.	.	.	.
=26	=26	=26	=26	=26	=26	=26	=26
1I7	C:maj7	.	.	38.979	.	voice	1C 1e 1g 1b
.	.	while	.	.	.	.	.
.	.	the	.	.	.	.	.
.	.	band's	.	.	.	.	.
=27	=27	=27	=27	=27	=27	=27	=27
1vi	A:min	.	.	40.515	.	voice	1A 1cc 1ee
.	.	play-	(D	.	.	.	.
.	.	-in	d)	.	.	.	.
=28	=28	=28	=28	=28	=28	=28	=28
1vi	A:min	.	.	42.051	.	voice	1A 1cc 1ee
.	.	one	.	.	.	.	.
.	.	of	.	.	.	.	.
.	.	our	.	.	.	.	.
=29	=29	=29	=29	=29	=29	=29	=29
1v7	G:min7	old	.	43.587	newline	voice	1G 1b- 1dd 1ff
.	.	.	.	.	.	.	.
.	.	fav-	.	.	.	.	.
.	.	-rite	.	.	.	.	.
.	.	songs	A	.	.	.	.
=30	=30	=30	=30	=30	=30	=30	=30
1Im7	C:7	.	.	45.101	.	voice	1C 1e 1g 1b
.	.	from	.	.	.	.	.
.	.	way	.	.	.	.	.
.	.	back	.	.	.	.	.
=31	=31	=31	=31	=31	=31	=31	=31
1IV7	F:maj7	when	E	46.615	.	voice	1F 1a 1cc 1ee
.	.	.	.	.	.	.	.
.	.	.	.	.	.	.	.
.	.	.	.	.	.	.	.
.	.	so	.	.	.	.	.
=32	=32	=32	=32	=32	=32	=32	=32
1III7	E:7	.	.	48.128	.	voice	1E 1g# 1b 1dd
=33	=33	=33	=33	=33	=33	=33	=33
1vi	A:min	.	.	49.642	newline	voice	1A 1cc 1ee
.	.	take	.	.	.	.	.
.	.	her	.	.	.	.	.
=34	=34	=34	=34	=34	=34	=34	=34
1iii7	E:min7	wrap	F	51.204	.	voice	1E 1g 1b 1dd
.	.	.	.	.	.	.	.
.	.	fel-	.	.	.	.	.
.	.	-las	.	.	.	.	.
.	.	.	.	.	.	.	.
=35	=35	=35	=35	=35	=35	=35	=35
1vi	A:min	find	.	52.766	.	voice	1A 1cc 1ee
.	.	her	.	.	.	.	.
.	.	.	.	.	.	.	.
.	.	an	.	.	.	.	.
.	.	emp-	.	.	.	.	.
.	.	-ty	.	.	.	.	.
=36	=36	=36	=36	=36	=36	=36	=36
1iii7	E:min7	lap	F	54.328	.	voice	1E 1g 1b 1dd
.	.	.	.	.	.	.	.
.	.	fel-	.	.	.	.	.
.	.	-las	.	.	.	.	.
.	.	.	.	.	.	.	.
=37	=37	=37	=37	=37	=37	=37	=37
1II7	D:7	dol-	A	55.89	newline	voice	1D 1f# 1a 1cc
.	.	-ly	.	.	.	.	.
.	.	.	.	.	.	.	.
.	.	.	.	.	.	.	.
.	.	nev-	.	.	.	.	.
.	.	-er	.	.	.	.	.
=38	=38	=38	=38	=38	=38	=38	=38
1V7	G:7	go	.	57.446	.	voice	1G 1b 1dd 1ff
.	.	aw-	.	.	.	.	.
.	.	-ay	.	.	.	.	.
.	.	a-	.	.	.	.	.
=39	=39	=39	=39	=39	=39	=39	=39
2I	C:maj	-gain	E	59.002	.	voice	2C 2e 2g
.	.	.	.	.	.	.	.
2-iiio	E-:dim	.	.	59.78	.	voice	2E- 2g- 2b--
=40	=40	=40	=40	=40	=40	=40	=40
2ii7	D:min7	.	.	60.558	.	voice	1D 1f 1a 1cc
2V7	G:7	.	.	61.336	.	voice	2G 2b 2dd 2ff
=41	=41	=41	=41	=41	=41	=41	=41
*>Letter>B	*>Letter>B	*>Letter>B	*>Letter>B	*>Letter>B	*>Letter>B	*>Letter>B	*>Letter>B
*>Label>Interlude	*>Label>Interlude	*>Label>Interlude	*>Label>Interlude	*>Label>Interlude	*>Label>Interlude	*>Label>Interlude	*>Label>Interlude
1I7	C:maj7	.	.	62.114	newline	trombone trumpet clarinet	1C 1e 1g 1b
=42	=42	=42	=42	=42	=42	=42	=42
1I7	C:maj7	.	.	63.68	.	trombone trumpet clarinet	1C 1e 1g 1b
=43	=43	=43	=43	=43	=43	=43	=43
1vi	A:min	.	.	65.247	.	trombone trumpet clarinet	1A 1cc 1ee
=44	=44	=44	=44	=44	=44	=44	=44
1vi	A:min	.	.	66.813	.	trombone trumpet clarinet	1A 1cc 1ee
=45	=45	=45	=45	=45	=45	=45	=45
1I7	C:maj7	.	.	68.379	newline	trombone trumpet clarinet	1C 1e 1g 1b
=46	=46	=46	=46	=46	=46	=46	=46
1#ivo	F#:dim	.	.	69.923	.	trombone trumpet clarinet	1F# 1a 1cc
=47	=47	=47	=47	=47	=47	=47	=47
1ii7	D:min7	.	.	71.468	.	trombone trumpet clarinet	1D 1f 1a 1cc
=48	=48	=48	=48	=48	=48	=48	=48
1VI7	A:7(b9)	.	.	73.012	.	trombone trumpet clarinet	1A 1cc# 1ee 1gg
=49	=49	=49	=49	=49	=49	=49	=49
1ii	D:min	.	.	74.557	newline	trombone trumpet clarinet	1D 1f 1a
=50	=50	=50	=50	=50	=50	=50	=50
1VI7	A:7	.	.	76.143	.	trombone trumpet clarinet	1A 1cc# 1ee 1gg
=51	=51	=51	=51	=51	=51	=51	=51
1ii	D:min(b13)	.	.	77.729	.	trombone trumpet clarinet	1D 1f 1a
=52	=52	=52	=52	=52	=52	=52	=52
1ii	D:min	.	.	79.315	.	trombone trumpet clarinet	1D 1f 1a
=53	=53	=53	=53	=53	=53	=53	=53
1ii7	D:min7	.	.	80.902	newline	trombone trumpet clarinet	1D 1f 1a 1cc
=54	=54	=54	=54	=54	=54	=54	=54
1V7	G:7	.	.	82.45	.	trombone trumpet clarinet	1G 1b 1dd 1ff
=55	=55	=55	=55	=55	=55	=55	=55
2I	C:maj	.	.	83.998	.	trombone trumpet clarinet	1C 1e 1g
2-iiio	E-:dim	.	.	84.772	.	trombone trumpet clarinet	2E- 2g- 2b--
=56	=56	=56	=56	=56	=56	=56	=56
2ii7	D:min7	.	.	85.546	.	trombone trumpet clarinet	1D 1f 1a 1cc
2V7	G:7	.	.	86.321	.	trombone trumpet clarinet	2G 2b 2dd 2ff
=57	=57	=57	=57	=57	=57	=57	=57
*>Letter>B2	*>Letter>B2	*>Letter>B2	*>Letter>B2	*>Letter>B2	*>Letter>B2	*>Letter>B2	*>Letter>B2
*>Label>Interlude	*>Label>Interlude	*>Label>Interlude	*>Label>Interlude	*>Label>Interlude	*>Label>Interlude	*>Label>Interlude	*>Label>Interlude
1I7	C:maj7	.	.	87.095	newline	trombone trumpet clarinet	1C 1e 1g 1b
=58	=58	=58	=58	=58	=58	=58	=58
1I7	C:maj7	.	.	88.642	.	trombone trumpet clarinet	1C 1e 1g 1b
=59	=59	=59	=59	=59	=59	=59	=59
1vi	A:min	.	.	90.188	.	trombone trumpet clarinet	1A 1cc 1ee
=60	=60	=60	=60	=60	=60	=60	=60
1vi	A:min	.	.	91.735	.	trombone trumpet clarinet	1A 1cc 1ee
=61	=61	=61	=61	=61	=61	=61	=61
1v7	G:min7	.	.	93.282	newline	trombone trumpet clarinet	1G 1b- 1dd 1ff
=62	=62	=62	=62	=62	=62	=62	=62
1Im7	C:7	.	.	94.79	.	trombone trumpet clarinet	1C 1e 1g 1b
=63	=63	=63	=63	=63	=63	=63	=63
1IV7	F:maj7	.	.	96.297	.	trombone trumpet clarinet	1F 1a 1cc 1ee
=64	=64	=64	=64	=64	=64	=64	=64
1III7	E:7	.	.	97.805	.	trombone trumpet clarinet	1E 1g# 1b 1dd
=65	=65	=65	=65	=65	=65	=65	=65
1vi	A:min	.	.	99.313	newline	trumpet clarinet	1A 1cc 1ee
=66	=66	=66	=66	=66	=66	=66	=66
1iii7	E:min7	.	.	100.852	.	trumpet clarinet	1E 1g 1b 1dd
=67	=67	=67	=67	=67	=67	=67	=67
1vi	A:min	.	.	102.391	.	trumpet clarinet	1A 1cc 1ee
=68	=68	=68	=68	=68	=68	=68	=68
1iii7	E:min7	.	.	103.931	.	trumpet clarinet	1E 1g 1b 1dd
=69	=69	=69	=69	=69	=69	=69	=69
1II7	D:7	.	.	105.47	newline	trombone	1D 1f# 1a 1cc
=70	=70	=70	=70	=70	=70	=70	=70
1V7	G:7	.	.	107.05	.	trombone	1G 1b 1dd 1ff
=71	=71	=71	=71	=71	=71	=71	=71
2I	C:maj	.	.	108.63	.	trombone	1C 1e 1g
2-iiio	E-:dim	.	.	109.42	.	trombone	2E- 2g- 2b--
=72	=72	=72	=72	=72	=72	=72	=72
2ii7	D:min7	.	.	110.21	.	trombone	2D 2f 2a 2cc
.	.	I	.	.	.	.	.
2V7	G:7	feel	.	111	.	trombone	2G 2b 2dd 2ff
.	.	the	.	.	.	.	.
=73	=73	=73	=73	=73	=73	=73	=73
*>Letter>B2	*>Letter>B2	*>Letter>B2	*>Letter>B2	*>Letter>B2	*>Letter>B2	*>Letter>B2	*>Letter>B2
*>Label>Chorus	*>Label>Chorus	*>Label>Chorus	*>Label>Chorus	*>Label>Chorus	*>Label>Chorus	*>Label>Chorus	*>Label>Chorus
1I7	C:maj7	room	.	111.789	newline	voice	1C 1e 1g 1b
.	.	.	.	.	.	.	.
.	.	.	.	.	.	.	.
=74	=74	=74	=74	=74	=74	=74	=74
1I7	C:maj7	sway-	(D	113.36	.	voice	1C 1e 1g 1b
.	.	-in	d)	.	.	.	.
.	.	.	.	.	.	.	.
.	.	while	.	.	.	.	.
.	.	the	.	.	.	.	.
=75	=75	=75	=75	=75	=75	=75	=75
1vi	A:min	band's	.	114.931	.	voice	1A 1cc 1ee
.	.	.	.	.	.	.	.
.	.	.	.	.	.	.	.
.	.	play-	(D	.	.	.	.
.	.	-in	d)	.	.	.	.
=76	=76	=76	=76	=76	=76	=76	=76
1vi	A:min	.	.	116.502	.	voice	1A 1cc 1ee
.	.	one	.	.	.	.	.
.	.	of	.	.	.	.	.
.	.	our	.	.	.	.	.
=77	=77	=77	=77	=77	=77	=77	=77
1v7	G:min7	old	.	118.073	newline	voice	1G 1b- 1dd 1ff
.	.	.	.	.	.	.	.
.	.	fav-	.	.	.	.	.
.	.	-rite	.	.	.	.	.
.	.	songs	A	.	.	.	.
=78	=78	=78	=78	=78	=78	=78	=78
1Im7	C:7	.	.	119.605	.	voice	1C 1e 1g 1b
.	.	from	.	.	.	.	.
.	.	way	.	.	.	.	.
.	.	back	.	.	.	.	.
=79	=79	=79	=79	=79	=79	=79	=79
1IV7	F:maj7	when	E	121.137	.	voice	1F 1a 1cc 1ee
.	.	.	.	.	.	.	.
.	.	.	.	.	.	.	.
.	.	so	.	.	.	.	.
=80	=80	=80	=80	=80	=80	=80	=80
1III7	E:7	.	.	122.669	.	voice	1E 1g# 1b 1dd
=81	=81	=81	=81	=81	=81	=81	=81
1vi	A:min	.	.	124.201	newline	voice	1A 1cc 1ee
.	.	gol-	.	.	.	.	.
.	.	-ly	.	.	.	.	.
=82	=82	=82	=82	=82	=82	=82	=82
1iii7	E:min7	gee	G	125.737	.	voice	1E 1g 1b 1dd
.	.	fel-	.	.	.	.	.
.	.	-las	.	.	.	.	.
.	.	.	.	.	.	.	.
=83	=83	=83	=83	=83	=83	=83	=83
1vi	A:min	have	.	127.274	.	voice	1A 1cc 1ee
.	.	a	.	.	.	.	.
.	.	lit	.	.	.	.	.
.	.	tle	.	.	.	.	.
.	.	faith	.	.	.	.	.
.	.	in	.	.	.	.	.
=84	=84	=84	=84	=84	=84	=84	=84
1iii7	E:min7	me	G	128.811	.	voice	1E 1g 1b 1dd
.	.	fel-	.	.	.	.	.
.	.	-las	.	.	.	.	.
.	.	.	.	.	.	.	.
=85	=85	=85	=85	=85	=85	=85	=85
*>Letter>A	*>Letter>A	*>Letter>A	*>Letter>A	*>Letter>A	*>Letter>A	*>Letter>A	*>Letter>A
*>Label>Outro	*>Label>Outro	*>Label>Outro	*>Label>Outro	*>Label>Outro	*>Label>Outro	*>Label>Outro	*>Label>Outro
1II7	D:7	dol-	A	130.347	newline	.	1D 1f# 1a 1cc
.	.	-ly	.	.	.	.	.
.	.	.	.	.	.	.	.
.	.	.	.	.	.	.	.
.	.	nev-	.	.	.	.	.
.	.	-er	.	.	.	.	.
=86	=86	=86	=86	=86	=86	=86	=86
1V7	G:7	go	.	131.873	.	.	1G 1b 1dd 1ff
.	.	a-	.	.	.	.	.
.	.	-way	D	.	.	.	.
.	.	.	.	.	.	.	.
=87	=87	=87	=87	=87	=87	=87	=87
1II7	D:7	prom-	.	133.4	.	.	1D 1f# 1a 1cc
.	.	-ise	.	.	.	.	.
.	.	.	.	.	.	.	.
.	.	.	.	.	.	.	.
.	.	that	.	.	.	.	.
.	.	you'll	.	.	.	.	.
=88	=88	=88	=88	=88	=88	=88	=88
1V7	G:7	nev-	.	134.926	.	.	1G 1b 1dd 1ff
.	.	-er	.	.	.	.	.
.	.	go	.	.	.	.	.
.	.	a-	.	.	.	.	.
.	.	-way	D	.	.	.	.
.	.	.	.	.	.	.	.
=89	=89	=89	=89	=89	=89	=89	=89
1II7	D:7	dol-	A	136.452	.	.	1D 1f# 1a 1cc
.	.	-ly	.	.	.	.	.
.	.	.	.	.	.	.	.
.	.	.	.	.	.	.	.
.	.	nev-	.	.	.	.	.
.	.	-er	.	.	.	.	.
=90	=90	=90	=90	=90	=90	=90	=90
1V7	G:7	go	.	137.978	.	.	1G 1b 1dd 1ff
.	.	a-	.	.	.	.	.
.	.	-way	D	.	.	.	.
.	.	.	.	.	.	.	.
.	.	a-	.	.	.	.	.
.	.	-gain	E	.	.	.	.
=91	=91	=91	=91	=91	=91	=91	=91
4I	C:maj	.	.	139.504	newline	voice	1C 1e 1g
4Ib	C:maj/3	.	.	139.886	.	voice	4c 4E 4g
4IV	F:maj	.	.	140.267	.	voice	4F 4a 4cc
4#ivo	F#:dim	.	.	140.648	.	voice	4F# 4a 4cc
=92	=92	=92	=92	=92	=92	=92	=92
4V	G:sus4(b7)	.	.	141.03	.	voice	1G 1b 1dd
4V7c	G:7/b5	.	.	141.411	.	voice	4g 4b 4D 4ff
2I	C:maj	.	.	141.793	.	voice	2C 2e 2g
1r;	N	.	.	143.7	.	r	1r;
1r;	N	.	.	147.775	.	r	1r;
*-	*-	*-	*-	*-	*-	*-	*-
!!!BillboardChartDate: 1964/03/28
!!!BillboardPeak: 1
!!!BillboardWeeksOnChart: 22
!!!COC: Louis Armstrong
!!!ENC: Nathaniel Condit-Schultz
!!!EST: Awating manual error checking and editing.
!!!OTL: Hello, Dolly!
!!!RDF**harte: Chris Harte's syntax, used by MIREX
!!!RDF**harmony: **recip + pitch class of root + harmonic quality
!!!RDF**leadinstrument: original McGill primary instrumentation annotation
!!!RDF**phrase: newline = linebreak in original McGill transcription
!!!RDF**timestamp: McGill audio timestamp in seconds
!!!RDT: 2017/01/12/
!!!SampleActualRank: 8
!!!SampleID#: 0650
!!!SampleTargetRank: 8
!!!MBID: 19bdce87-7af7-4098-abdf-380fb5658374
